src/img/swiper-button.svg

<?xml version="1.0" encoding="UTF-8"?> <svg xmlns="http://www.w3.org/2000/svg" width="30" height="30" viewBox="0 0 30 30" fill="none"> <path d="M15 18.75L20 13.75H10L15 18.75ZM15 27.5C13.2708 27.5 11.6458 27.1717 10.125 26.515C8.60417 25.8592 7.28125 24.9688 6.15625 23.8438C5.03125 22.7188 4.14083 21.3958 3.485 19.875C2.82833 18.3542 2.5 16.7292 2.5 15C2.5 13.2708 2.82833 11.6458 3.485 10.125C4.14083 8.60417 5.03125 7.28125 6.15625 6.15625C7.28125 5.03125 8.60417 4.14042 10.125 3.48375C11.6458 2.82792 13.2708 2.5 15 2.5C16.7292 2.5 18.3542 2.82792 19.875 3.48375C21.3958 4.14042 22.7188 5.03125 23.8438 6.15625C24.9688 7.28125 25.8592 8.60417 26.515 10.125C27.1717 11.6458 27.5 13.2708 27.5 15C27.5 16.7292 27.1717 18.3542 26.515 19.875C25.8592 21.3958 24.9688 22.7188 23.8438 23.8438C22.7188 24.9688 21.3958 25.8592 19.875 26.515C18.3542 27.1717 16.7292 27.5 15 27.5ZM15 25C17.7917 25 20.1562 24.0312 22.0937 22.0937C24.0312 20.1562 25 17.7917 25 15C25 12.2083 24.0312 9.84375 22.0937 7.90625C20.1562 5.96875 17.7917 5 15 5C12.2083 5 9.84375 5.96875 7.90625 7.90625C5.96875 9.84375 5 12.2083 5 15C5 17.7917 5.96875 20.1562 7.90625 22.0937C9.84375 24.0312 12.2083 25 15 25Z" fill="#D32F2A"></path> </svg>

<svg xmlns="http://www.w3.org/2000/svg" width="30" height="30" fill="none"><path d="M15 18.75l5-5H10l5 5zm0 8.75c-1.73 0-3.354-.328-4.875-.985a12.614 12.614 0 01-3.969-2.671 12.615 12.615 0 01-2.671-3.969C2.828 18.355 2.5 16.729 2.5 15c0-1.73.328-3.354.985-4.875a12.614 12.614 0 012.671-3.969 12.632 12.632 0 013.969-2.672C11.645 2.828 13.271 2.5 15 2.5c1.73 0 3.354.328 4.875.984a12.633 12.633 0 013.969 2.672 12.614 12.614 0 012.671 3.969c.657 1.52.985 3.146.985 4.875 0 1.73-.328 3.354-.985 4.875a12.614 12.614 0 01-2.671 3.969 12.614 12.614 0 01-3.969 2.671c-1.52.657-3.146.985-4.875.985zm0-2.5c2.792 0 5.156-.969 7.094-2.906C24.03 20.156 25 17.792 25 15c0-2.792-.969-5.156-2.906-7.094C20.156 5.97 17.792 5 15 5c-2.792 0-5.156.969-7.094 2.906C5.97 9.844 5 12.208 5 15c0 2.792.969 5.156 2.906 7.094C9.844 24.03 12.208 25 15 25z" fill="#D32F2A"/></svg>
